!!!COM: Bach, Johann Sebastian
!!!OPR: Joh. Seb. Bachs vierstimmige Choralges‰nge
!!!XEN: Four-part Chorales
!!!OTL: 174. Wenn ich in Angst und Not
!!!SCT: BWV 427
!!!SCA: Thematisch-systematisches Verzeichnis der musikalischen Werke Johann Sebastian Bach: Bach-Werke-Verzeichnis (Schmieder)
!!!YOR: Bach Gesellschaft Edition xxxix
!!!ENC: Steven Rasmussen
!!!CDT: 1685/3//-1750/7/28/
!!!OCY: Deutschland
!!!YEC: Copyright (c) 1994, 2000 Center for Computer Assisted Research in the Humanities
!!!YEM: Rights to all derivative editions reserved
!!!YEN: United States of America
**kern	**kern	**kern	**kern	**silbe
*I:[BASSO]	*I:[TENORE]	*I:[ALTO]	*I:[SOPRANO]	*I:[SOPRANO]
*clefF4	*clefGv2	*clefG2	*clefG2	*
*k[b-e-a-]	*k[b-e-a-]	*k[b-e-a-]	*k[b-e-a-]	*
*E-:	*E-:	*E-:	*E-:	*
*M4/4	*M4/4	*M4/4	*M4/4	*
8E-L	8GL	4B-	4e-	Wenn
8FJ	8A-J	.	.	.
=1	=1	=1	=1	=1
4G	8B-L	4e-	4b-	ich
.	8cJ	.	.	.
4G	4d-	4e-	4b-	in
8A-L	8cL	4e-	4cc	Angst
8GJ	8B-J	.	.	.
4F	4A-	4f	4dd	und
=2	=2	=2	=2	=2
2E-;	2B-;	2g;	2ee-;	Not
4r	4r	4r	4r	.
4BB-	4B-	4f	4dd	mein'
=3	=3	=3	=3	=3
4C	8B-L	4cc	4ee-	Au-
.	8AnJ	.	.	.
4G	4B-	8b-L	4dd	-gen
.	.	8dJ	.	.
4E-	4B-	4g	4cc	heb'
4F	4A	8fL	4cc	em-
.	.	8e-J	.	.
=4	=4	=4	=4	=4
2BB-;	2F;	2d;	2b-;	-por
4r	4r	4r	4r	.
4GG	4B-	4e-	4b-	zu
=5	=5	=5	=5	=5
4AA-	8B-L	4e-	4cc	dei-
.	8A-J	.	.	.
4BB-	8A-L	4d	4b-	-nen
.	8GJ	.	.	.
8CL	8GL	8e-L	4a-	Ber-
8DJ	8FJ	8B-J	.	.
4E-	8FL	4B-	4g	-gen,
.	8E-J	.	.	.
=6	=6	=6	=6	=6
2BB-;	2D;	2B-;	2f;	Herr!
4r	4r	4r	4r	.
4BBn	4G	4d	4g	mit
=7	=7	=7	=7	=7
4C	4G	8dL	4e-	Seuf-
.	.	8cJ	.	.
4D	4F	8cL	4f	-zen
.	.	8B-J	.	.
4E-	4E-	4B-	8gL	und
.	.	.	8a-J	.
4GG	4B-	4e-	4b-	mit
=8	=8	=8	=8	=8
4FF	4c	8e-L	2a-	Fle-
.	.	16fL	.	.
.	.	16e-JJ	.	.
4BB-	4B-	4d	.	.
4EE-;	4B-;	4e-;	4g;	-hen,
4B-	4d	4f	4dd	so
=9	=9	=9	=9	=9
8B-L	4c	8gL	4ee-	reichst
8AnJ	.	8fJ	.	.
4B-	4B-	4f	4dd	du
4E-	4B-	4g	4cc	mir
4F	4An	8fL	4cc	dein
.	.	8e-J	.	.
=10	=10	=10	=10	=10
2BB-;	2F;	2d;	2b-;	Ohr,
4r	4r	4r	4r	.
4C	4c	4g	4ee-	dass
=11	=11	=11	=11	=11
4G	8cL	4g	4dd	ich
.	8B-J	.	.	.
4A-	8B-L	4e-	4cc	nicht
.	8A-J	.	.	.
4E-	8A-L	4e-	4b-	darf
.	8GJ	.	.	.
4C	4G	4e-	4cc	be-
=12	=12	=12	=12	=12
8DL	8dL	8fL	4b-	-tr√ºbt
8EnJ	8cJ	8gJ	.	.
4F	4c	8gL	4a-	von
.	.	8fJ	.	.
4C	4c	8fL	8gL	dei-
.	.	8e-J	8a-J	.
4GG	4B-	4e-	4b-	-nem
=13	=13	=13	=13	=13
4C	8E-L	4e-	4a-	Ant-
.	8FJ	.	.	.
4BB-	8GL	4e-	4g	-litz
.	8E-J	.	.	.
4AA-	4c	4e-	2f	ge-
4BB-	8B-L	4d	.	.
.	8A-J	.	.	.
=14	=14	=14	=14	=14
1EE-;	1G;	1B-;	1e-;	-hen.
==|!	==|!	==|!	==|!	==|!
*-	*-	*-	*-	*-
!!!RWG: Key is interpreted using the Humdrum key tool.
!!!URL-pdf: https://s9.imslp.org/files/imglnks/usimg/6/6b/IMSLP24489-PMLP09471-CCARH_Bach_Chorales.pdf#page=120 Musedata edition
!!!URL-pdf: https://s9.imslp.org/files/imglnks/usimg/7/7a/IMSLP04155-Bach_-_BGA_253-438.pdf#page=95 	Bach-Gesellschaft Ausgabe, Band 39 (pp.175-276) Leipzig: Breitkopf und H‰rtel, 1892. Plate B.W. XXXIX.
!!!END: 1994/08/08
!!!EMD: Converted from MuseData to Humdrum Dec 19, 2000, by Andreas Kornstaedt using muse2kern.
!!!EED: Craig Stuart Sapp
!!!EEV: 2024/03/31
!!!ONB: Some non-unicode characters
!!!filter-keyboard: satb2gs
